svg/vista.svg

<svg width="78" height="54" viewBox="0 0 78 54" fill="none" xmlns="http://www.w3.org/2000/svg">
<path fill-rule="evenodd" clip-rule="evenodd" d="M24 27C24 23.0218 25.5804 19.2064 28.3934 16.3934C31.2064 13.5804 35.0218 12 39 12C42.9782 12 46.7936 13.5804 49.6066 16.3934C52.4196 19.2064 54 23.0218 54 27C54 30.9782 52.4196 34.7936 49.6066 37.6066C46.7936 40.4196 42.9782 42 39 42C35.0218 42 31.2064 40.4196 28.3934 37.6066C25.5804 34.7936 24 30.9782 24 27ZM39 18C36.6131 18 34.3239 18.9482 32.636 20.636C30.9482 22.3239 30 24.6131 30 27C30 29.3869 30.9482 31.6761 32.636 33.364C34.3239 35.0518 36.6131 36 39 36C41.3869 36 43.6761 35.0518 45.364 33.364C47.0518 31.6761 48 29.3869 48 27C48 24.6131 47.0518 22.3239 45.364 20.636C43.6761 18.9482 41.3869 18 39 18Z" fill="white"/>
<path fill-rule="evenodd" clip-rule="evenodd" d="M8.292 21.584C6.616 24 6 25.892 6 27C6 28.108 6.616 30 8.292 32.416C9.916 34.748 12.324 37.28 15.372 39.62C21.48 44.308 29.852 48 39 48C48.148 48 56.52 44.308 62.628 39.62C65.676 37.28 68.084 34.748 69.708 32.416C71.384 30 72 28.108 72 27C72 25.892 71.384 24 69.708 21.584C68.084 19.252 65.676 16.72 62.628 14.38C56.52 9.692 48.148 6 39 6C29.852 6 21.48 9.692 15.372 14.38C12.324 16.72 9.916 19.252 8.292 21.584ZM11.716 9.62C18.64 4.308 28.264 0 39 0C49.736 0 59.36 4.308 66.28 9.62C69.748 12.28 72.612 15.248 74.636 18.164C76.604 21 78 24.108 78 27C78 29.892 76.6 33 74.636 35.836C72.612 38.752 69.748 41.716 66.284 44.38C59.364 49.692 49.736 54 39 54C28.264 54 18.64 49.692 11.72 44.38C8.252 41.72 5.388 38.752 3.364 35.836C1.4 33 0 29.892 0 27C0 24.108 1.4 21 3.364 18.164C5.388 15.248 8.252 12.284 11.716 9.62Z" fill="white"/>
</svg>

<svg width="78" height="54" fill="none" xmlns="http://www.w3.org/2000/svg"><path fill-rule="evenodd" clip-rule="evenodd" d="M24 27a15 15 0 1 1 30 0 15 15 0 0 1-30 0Zm15-9a9 9 0 1 0 0 18 9 9 0 0 0 0-18Z" fill="#fff"/><path fill-rule="evenodd" clip-rule="evenodd" d="M8.292 21.584C6.616 24 6 25.892 6 27c0 1.108.616 3 2.292 5.416 1.624 2.332 4.032 4.864 7.08 7.204C21.48 44.308 29.852 48 39 48s17.52-3.692 23.628-8.38c3.048-2.34 5.456-4.872 7.08-7.204C71.384 30 72 28.108 72 27c0-1.108-.616-3-2.292-5.416-1.624-2.332-4.032-4.864-7.08-7.204C56.52 9.692 48.148 6 39 6s-17.52 3.692-23.628 8.38c-3.048 2.34-5.456 4.872-7.08 7.204ZM11.716 9.62C18.64 4.308 28.264 0 39 0s20.36 4.308 27.28 9.62c3.468 2.66 6.332 5.628 8.356 8.544C76.604 21 78 24.108 78 27c0 2.892-1.4 6-3.364 8.836-2.024 2.916-4.888 5.88-8.352 8.544C59.364 49.692 49.736 54 39 54s-20.36-4.308-27.28-9.62c-3.468-2.66-6.332-5.628-8.356-8.544C1.4 33 0 29.892 0 27c0-2.892 1.4-6 3.364-8.836 2.024-2.916 4.888-5.88 8.352-8.544Z" fill="#fff"/></svg>
